outputs/icons/action/check_circle_sharp.svg

<svg xmlns="http://www.w3.org/2000/svg" width="1200" height="1200" fill="none"><g clip-path="url(#a)"><path fill="#000" d="M600 100c-276 0-500 224-500 500s224 500 500 500 500-224 500-500-224-500-500-500M500 850 250 600l70.5-70.5 179.5 179L879.5 329l70.5 71z"/></g><defs><clipPath id="a"><path fill="#fff" d="M0 0h1200v1200H0z"/></clipPath></defs></svg>

<svg width="1200" height="1200" viewBox="0 0 1200 1200" fill="none" xmlns="http://www.w3.org/2000/svg"><g clip-path="url(#clip0_117_757)"><path d="M600 100C324 100 100 324 100 600C100 876 324 1100 600 1100C876 1100 1100 876 1100 600C1100 324 876 100 600 100ZM500 850L250 600L320.5 529.5L500 708.5L879.5 329L950 400L500 850Z" fill="#1D1E23"/></g><defs><clipPath id="clip0_117_757"><path width="24" fill="white" d="M0 0H1200V1200H0V0z"/></clipPath></defs></svg>
